X:1
T:Jimmy Linn's
L:1/8
M:4/4
I:linebreak $
K:Bb
V:1 treble 
V:1
 (3FGA |: Bbfd gecA | BdFB DFBF | Bdgf edcB | (3ABc (3BAG (3FGF (3EDC |$ B,bfd gecA | BdFB DFBF | %7
 Egfe dcBA |1 B2 (3Bcd B2 (3FGA :|2 B2 (3Bcd B2 (3fga ||$ bBdf gBeg | (3fgf (3edc BAGF | %12
 E<Gcd edcB | (3ABc (3BAG F2 (3fga | bBdf gBeg |$ fBdf eFAc | Bgfe dcBA | B2 (3Bcd B2 (3fga :| %18
